X: 4326
T: Bogle's Majority
R: polka
M: 2/4
K: Amajor
|:c2 c>f|e>c B<A|f<a e>c|B2 (3BAB|
c2 c>f|e>c B<A|f<a e>c|A2 AA/B/|
c2 c>f|e>c B<A|f<a e>c|B2 (3Bce|
a>f e>a|f2 (3fec|B2 A2|1 A2 (3BAB:|2 A2 AA/B/||
|:c>f (3ecB|c>f (3ecB|c>f (3ecA|B2 (3BAB|
c>f (3ecB|c>f (3ecB|c>f (3ecB|A2 AA/B/|
c>f (3ecB|c>f (3ecB|c>f (3ecA|B2 (3Bce|
a>f e>a|f2 (3fec|B2 A2|1 A2 (3BAB:|2 A2 AA/B/||

